X: 386
T: Mazurkas No. 2.	 Op. 63
C: Fryderyk Chopin
%%abc-version 2.0
%%abcx-abcm2ps-target-version 5.9.1 (29 Sep 2008)
%%abc-creator hum2abc beta
%%abcx-conversion-date 2021/10/03 11:23:42
%%abc-edited-by Andrzej Kubiczek
%%abcx-initial-encoding-date 2021-01-08
%%humdrum-veritas 2296192330
%%humdrum-veritas-data 3350925387
%%linebreak <none>
%%barnumbers 0
L: 1/4
M: 3/4
N: Derived from 063-1-BR-002.krn
P: 3 MAZURKAS POUR PIANO dédiées à Madame la Comtesse Laure Czosnowska
Q: "Lento."
%%staves {1 2}
V: 1 clef=treble
V: 2 clef=bass
K: Ab
[V:1] zd2- | 
[V:2] C,[=EB,][EB,] | 
[V:1] d/c/B/A/G/F/ | 
[V:2] C,[FA,][CA,] | 
[V:1] G/C<cG/ | 
[V:2] C,[=EB,][EB,] | 
[V:1] A/>c/f2- | 
[V:2] F,,[FCA,][FDA,] | 
[V:1] ff2- | 
[V:2] G,,[DB,E,][DB,E,] | 
[V:1] f/e/d/c/B/A/ | 
[V:2] A,,[CE,]z | 
[V:1] __A/_G/B/F/_A/G/ | 
[V:2] B,,[D_G,][DB,] | 
[V:1] F/=E/C2 | 
[V:2] C,[=EG,][EG,] | 
[V:1] {/C}dd2- | 
[V:2] C,,[=EB,][EB,] | 
[V:1] d/c/B/A/G/F/ | 
[V:2] C,[FCA,][CA,] | 
[V:1] G/C<cG/ | 
[V:2] C,,[=EB,][EB,] | 
[V:1] =A/c<f=e/ | 
[V:2] F,,[_EF,][E=A,F,] | 
[V:1] _e/=d/_d/=A/B/=B/ | 
[V:2] B,,[DG,F,]z | 
[V:1] d/{/e}d/c/G/A/=B/ | 
[V:2] C,[FCA,]z | 
[V:1] d/c/=B/^F/G/_B/ | 
[V:2] C,,[=EG,][EC_B,] | 
[V:1] =A/_A/F2 | 
[V:2] F,,[CA,][DA,F,] | 
[V:1] E2F | 
[V:2] zD[DG,] & z[E,G,,][E,E,,] | 
[V:1] !mordent!E/=D/=Ec & xCC | 
[V:2] z[E,A,,]!accent![E,A,,] | 
[V:1] B2c & z[FD][GD] | 
[V:2] z[B,E,A,,][B,E,A,,] | 
[V:1] !mordent!A/>G/[AC][eE] | 
[V:2] z[A,E,A,,][CE,A,,] | 
[V:1] E2F | 
[V:2] z[DG,][DG,] & z[E,E,,][E,E,,] | 
[V:1] E/=D/EA & xCC- | 
[V:2] z[E,/A,,/]G,,/[F,F,,] | 
[V:1] G2=D & C>=B,G, | 
[V:2] z[=D,G,,][D,G,,] | 
[V:1] G2=D & C/=B,/=A,/B,/G, | 
[V:2] z[=D,G,,][D,G,,] | 
[V:1] [E2_D2][FD-] | 
[V:2] _A,/G,/F,/G,/x & zz[E,E,,] | 
[V:1] !mordent!E/=D/Ec & DC!accent!C | 
[V:2] z[E,A,,][E,A,,] | 
[V:1] B2c & z[FD][GD] | 
[V:2] z[B,E,A,,][B,E,A,,] | 
[V:1] !mordent!A/>G/ [A/C/]z//[f//F//][eE] | 
[V:2] z[A,E,A,,][CE,A,,] | 
[V:1] E2F & z[DG,][DG,] | 
[V:2] z[E,E,,][E,E,,] | 
[V:1] !mordent!E/z//=D//EA & xCC | 
[V:2] z[E,A,,][=D,F,,] | 
[V:1] G2=D & C>=B,G, | 
[V:2] z[=D,G,,][D,G,,] | 
[V:1] G2=D & !accent!C/=B,/=A,/B,/G, | 
[V:2] z[=D,G,,][D,G,,] | 
[V:1] =A2=d & !accent!G/^F/=E/F/=D | 
[V:2] z[=A,=D,G,,][A,D,G,,] | 
[V:1] =d/>d/dg & c/=B/=A/B/!accent!G | 
[V:2] z[=B,=D,G,,][B,D,G,,] | 
[V:1] G2c & F/=E/=D/E/C | 
[V:2] z[_B,C,G,,][B,C,G,,] | 
[V:1] c/>c/cf & B/_A/G/A/!accent!F | 
[V:2] z[A,C,F,,][A,C,F,,] | 
[V:1] F/E/[DA,]A,/B,/ | 
[V:2] z[C,F,,][C,F,,] | 
[V:1] C2C | 
[V:2] z[G,=E,][G,E,] & z[C,C,,][C,C,,] | 
[V:1] F/E/[DF,]A,/B,/ | 
[V:2] x2F, & z[A,,D,,][A,,D,,] | 
[V:1] C2C | 
[V:2] z[A,E,][A,E,] & z[A,,A,,,][A,,A,,,] | 
[V:1] {/C}dd2- | 
[V:2] =E,,[GCB,][GCB,] | 
[V:1] d/c/B/A/G/F/ | 
[V:2] F,,[FA,][CA,] | 
[V:1] G/C<cG/ | 
[V:2] C,[=EB,][ECB,] | 
[V:1] A/>c/f2- | 
[V:2] F,,[FCA,][FDA,] | 
[V:1] ff3/f/- | 
[V:2] G,,[DB,E,][DB,E,] | 
[V:1] f/e/d/c/B/A/ | 
[V:2] A,,[CE,]z | 
[V:1] __A/_G/B/F/_A/G/ | 
[V:2] B,,[D_G,][DB,] | 
[V:1] F/=E/C2- | 
[V:2] C,[=EG,][EG,] | 
[V:1] {/C}dd2- | 
[V:2] C,,[=EB,][EB,] | 
[V:1] d/c/!mordent!B/A/G/F/ | 
[V:2] C,[FCA,][CA,] | 
[V:1] G/C<cG/ | 
[V:2] C,,[=EB,][EB,] | 
[V:1] =A/c<f=e/ | 
[V:2] F,,[EF,][E=A,F,] | 
[V:1] _e/=d/_d/=A/B/=B/ | 
[V:2] B,,[FDG,F,]z | 
[V:1] d/{/e}d/c/G/A/=B/ | 
[V:2] C,[FCA,]z | 
[V:1] d/c/=B/^F/G/_B/ | 
[V:2] C,,[=EG,][EC_B,] | 
[V:1] =A/_A/F2 |]  
[V:2] z[A,2C,2] & F,,3 |]
